docs/img/icons/shield-6.svg

<svg width="50" height="50" viewBox="0 0 50 50" fill="none" xmlns="http://www.w3.org/2000/svg">
<path d="M24.9625 1.15645L23.8344 2.42207C19.0531 7.79082 12.4156 10.3252 4.49688 11.2908L3.125 11.4564V12.8408C3.125 20.9033 4.83125 28.7252 8.3625 35.1377C11.8938 41.5502 17.3125 46.5533 24.5531 48.7127L25.0187 48.8533L25.4813 48.6939C39.475 44.1721 46.875 29.4408 46.875 12.8408V11.5971L45.6594 11.3096C37.9562 9.53457 30.8531 7.37832 26.1344 2.39395L24.9625 1.15332V1.15645ZM25.0375 5.3127C30.0969 10.0377 36.7406 12.3127 43.6219 13.9564C43.2938 28.8971 36.7562 41.3596 24.9875 45.4627C18.8594 43.4783 14.2312 39.3064 11.1031 33.6283C8.05312 28.0971 6.54062 21.1846 6.37812 13.9971C13.6125 12.9002 20.0719 10.3096 25.0344 5.3127H25.0375ZM33.3438 18.6908L21.9469 28.6689L16.7281 23.4564L14.5187 25.6658L21.8 32.9471L35.4062 21.0439L33.3438 18.6908Z" fill="#397345"/>
</svg>

<svg width="50" height="50" fill="none" xmlns="http://www.w3.org/2000/svg"><path d="M24.962 1.156l-1.128 1.266c-4.78 5.369-11.418 7.903-19.337 8.869l-1.372.165v1.385c0 8.062 1.706 15.884 5.238 22.297 3.53 6.412 8.95 11.415 16.19 13.575l.466.14.462-.16c13.994-4.52 21.394-19.252 21.394-35.852v-1.244l-1.216-.287c-7.703-1.775-14.806-3.932-19.525-8.916l-1.172-1.24v.002zm.076 4.157c5.059 4.725 11.703 7 18.584 8.643-.328 14.941-6.866 27.404-18.634 31.507-6.129-1.985-10.757-6.157-13.885-11.835-3.05-5.53-4.562-12.443-4.725-19.63 7.235-1.098 13.694-3.688 18.656-8.685h.004zm8.306 13.378l-11.397 9.978-5.219-5.213-2.21 2.21 7.282 7.281 13.606-11.903-2.062-2.353z" fill="#397345"/></svg>
